X:1
T:Title
%%score ( 1 2 ) { 3 | 4 }
L:1/8
Q:1/4=105
M:9/8
K:Ab
V:1 treble nm="Grand Piano, Soprano"
V:2 treble 
V:3 bass nm="Choir Pad, Richmond Park, Doane"
V:4 bass 
V:1
 [Ec][Fd][Ec] [Ec]3 [EA]3 | [EB][Ec][DB] [DB]3 .[CA]3 | [DF][EG][EA] [EB]3 [Ec]3 | %3
w: By~William~Howard~Doane,~1884 * * * *|||
 [=DB][DF][FA] G3 .B3 | [Ec][Fd][Ec] [Ec]3 [EA]3 | [Ec][Fd][Fc] [Fc]3 .[FB]3 | %6
w: |||
 [GB][Ac][GB] [Ae][Ed][Ec] [Ec]3- | [Ec]2 [EB] [EA]6 | [EB][Ec][Ed] [Ed]3 [EG]3 | %9
w: |||
 [EA][EB][Ec] [Ec]3 .[EA]3 | [Ac][Ad][Ae] [Af]3 .[Ae]3 | [Ee][Ed][Ec] c3 .B3 | %12
w: |||
 [Ec][Fd][Ec] [Ec]3 [EA]3 | [Ec][Fd][Fc] [Fc]3 .[FB]3 | [GB][Ac][GB] [Ae][Ed][Ec] [Ec]3- | %15
w: |||
 [Ec]2 [EB] [EA]6- | [EA]3 z3 z3 |] %17
w: ||
V:2
 x9 | x9 | x9 | z3 E6 | x9 | x9 | x9 | x9 | x9 | x9 | x9 | z3 E6 | x9 | x9 | x9 | x9 | x9 |] %17
V:3
 A,A,A, A,3 A,3 | G,A,G, G,3 .A,3 | A,B,A, G,3 A,3 | F,B,B, B,3 .G,3 | A,A,A, A,3 A,3 | %5
 =A,A,A,[K:treble] E3 .D3 | DEE E[K:bass]G,A, A,3 | G,2 D C6 | G,A,B, B,3 D3 | %9
 CB,A, A,3[K:treble] .C3 | EB,C D3 .C3 | C[K:bass]B,A, A,3 .G,3 | A,A,A, A,3 A,3 | %13
 =A,A,A,[K:treble] E3 .D3 | DEE E[K:bass]G,A, A,3 | G,2 D[K:treble] C6- | C3 z3 z3 |] %17
V:4
 A,,A,,A,, A,,3 C,3 | E,E,E, E,3 .A,,3 | D,D,C, B,,3 A,,3 | B,,B,,=D, E,6 | A,,A,,A,, A,,3 C,3 | %5
 F,F,F, B,,3 .B,,3 | E,E,E, C,B,,A,, E,3- | E,2 E, A,,6 | E,E,E, E,3 E,3 | E,E,E, z3 .A,3 | %10
 A,A,A, A,3 .A,3 | A, .G,2 E,6 | A,,A,,A,, A,,3 C,3 | F,F,F, B,,3 .B,,3 | E,E,E, C,B,,A,, E,3- | %15
 E,2 E, A,,6- | A,,3 z3 z3 |] %17

